src/svg/point-of-interest.svg

<svg version="1.2" baseProfile="tiny" xmlns="http://www.w3.org/2000/svg" width="24" height="24" viewBox="0 0 24 24"><path d="M16.5 11c1.93 0 3.5-1.57 3.5-3.5s-1.57-3.5-3.5-3.5-3.5 1.57-3.5 3.5v1.5h-2v-1.5c0-1.93-1.57-3.5-3.5-3.5s-3.5 1.57-3.5 3.5 1.57 3.5 3.5 3.5h1.5v2h-1.5c-1.93 0-3.5 1.57-3.5 3.5s1.57 3.5 3.5 3.5 3.5-1.57 3.5-3.5v-1.5h2v1.5c0 1.93 1.57 3.5 3.5 3.5s3.5-1.57 3.5-3.5-1.57-3.5-3.5-3.5h-1.5v-2h1.5zm-1.5-3.5c0-.828.673-1.5 1.5-1.5s1.5.672 1.5 1.5c0 .826-.673 1.5-1.5 1.5h-1.5v-1.5zm-6 9c0 .826-.673 1.5-1.5 1.5s-1.5-.674-1.5-1.5c0-.828.673-1.5 1.5-1.5h1.5v1.5zm0-7.5h-1.5c-.827 0-1.5-.674-1.5-1.5 0-.828.673-1.5 1.5-1.5s1.5.672 1.5 1.5v1.5zm4 4h-2v-2h2v2zm3.5 2c.827 0 1.5.672 1.5 1.5 0 .826-.673 1.5-1.5 1.5s-1.5-.674-1.5-1.5v-1.5h1.5z"/></svg>

<?xml version="1.0" encoding="iso-8859-1"?>
<!-- Generator: Adobe Illustrator 16.2.1, SVG Export Plug-In . SVG Version: 6.00 Build 0)  -->
<svg version="1.2" baseProfile="tiny" id="Layer_1" xmlns="http://www.w3.org/2000/svg" xmlns:xlink="http://www.w3.org/1999/xlink"
	 x="0px" y="0px" width="24px" height="24px" viewBox="0 0 24 24" xml:space="preserve">
<path d="M16.5,11c1.93,0,3.5-1.57,3.5-3.5S18.43,4,16.5,4S13,5.57,13,7.5V9h-2V7.5C11,5.57,9.43,4,7.5,4S4,5.57,4,7.5
	S5.57,11,7.5,11H9v2H7.5C5.57,13,4,14.57,4,16.5S5.57,20,7.5,20s3.5-1.57,3.5-3.5V15h2v1.5c0,1.93,1.57,3.5,3.5,3.5
	s3.5-1.57,3.5-3.5S18.43,13,16.5,13H15v-2H16.5z M15,7.5C15,6.672,15.673,6,16.5,6S18,6.672,18,7.5C18,8.326,17.327,9,16.5,9H15V7.5
	z M9,16.5C9,17.326,8.327,18,7.5,18S6,17.326,6,16.5C6,15.672,6.673,15,7.5,15H9V16.5z M9,9H7.5C6.673,9,6,8.326,6,7.5
	C6,6.672,6.673,6,7.5,6S9,6.672,9,7.5V9z M13,13h-2v-2h2V13z M16.5,15c0.827,0,1.5,0.672,1.5,1.5c0,0.826-0.673,1.5-1.5,1.5
	S15,17.326,15,16.5V15H16.5z"/>
</svg>
